src/main/resources/icons/AllIcons/fileTypes/jsonSchema_dark.svg

<!-- Copyright 2000-2021 JetBrains s.r.o. Use of this source code is governed by the Apache 2.0 license that can be found in the LICENSE file. -->
<svg xmlns="http://www.w3.org/2000/svg" width="16" height="16" viewBox="0 0 16 16">
  <g fill="none" fill-rule="evenodd">
    <polygon fill="#9AA7B0" fill-opacity=".8" points="7 1 3 5 7 5"/>
    <path fill="#9AA7B0" fill-opacity=".8" d="M6.416,13.8965 C6.416,13.8125 6.435,13.0285 6.432,12.9905 C6.392,12.9865 5,12.9835 5,12.9835 L5,10.0155 C5,10.0155 6.391,10.0125 6.431,10.0075 C6.435,9.9685 6.416,9.1765 6.416,9.0915 C6.416,6.8825 8.108,6.2885 9.584,6.0165 L10.5,5.8475 L11.194,8.5405 C11.194,8.5405 9.628,9.0235 9.575,9.0585 C9.582,9.0725 9.59,10.1695 9.587,10.2245 L11.115,8.6755 L12.791,10.8595 L13,10.4935 L13,1.0005 L8,1.0005 L8,6.0005 L3,6.0005 L3,15.0005 L6.609,15.0005 C6.496,14.6815 6.416,14.3285 6.416,13.8965"/>
    <path fill="#9AA7B0" d="M11.7539,15 L9.4919,12.146 C9.5609,12.388 9.5959,12.652 9.5959,12.94 C9.5959,13.063 9.5849,13.95 9.5909,13.976 C9.5909,13.975 9.5929,13.974 9.5929,13.974 C9.6229,13.974 11.1939,14.459 11.1939,14.459 L11.0549,15 L11.7539,15 Z" opacity=".5"/>
    <path fill="#9AA7B0" d="M7.416,13.8965 C7.416,13.7395 7.437,13.3185 7.437,13.1395 C7.437,12.3195 7.127,11.9835 6.269,11.9835 L6,11.9835 L6,11.0155 L6.269,11.0155 C7.127,11.0155 7.437,10.6685 7.437,9.8485 C7.437,9.6695 7.416,9.2505 7.416,9.0915 C7.416,8.0195 7.882,7.3465 9.765,7.0005 L9.981,7.8405 C8.74,8.1885 8.575,8.5135 8.575,9.2815 C8.575,9.4925 8.596,9.8385 8.596,10.0595 C8.596,10.8795 8.203,11.2785 7.52,11.5005 C8.213,11.7305 8.596,12.1205 8.596,12.9405 C8.596,13.1615 8.575,13.5075 8.575,13.7185 C8.575,14.4855 8.74,14.8115 9.981,15.1585 L9.765,16.0005 C7.882,15.6525 7.416,14.9795 7.416,13.8965"/>
    <polygon fill="#9AA7B0" points="12.914 12.662 11.02 10.195 10.023 11.206 13.011 14.975 15.998 10.011 15.004 9"/>
  </g>
</svg>

<svg xmlns="http://www.w3.org/2000/svg" width="16" height="16" viewBox="0 0 16 16"><rect id="frame" width="16" height="16" fill="none"/><g fill="#9AA7B0" fill-rule="evenodd"><path fill-opacity=".8" d="M7 1L3 5h4z"/><path fill-opacity=".8" d="M6.416 13.896c0-.084.019-.868.016-.905-.04-.005-1.432-.008-1.432-.008v-2.968s1.391-.003 1.431-.008c.004-.038-.015-.83-.015-.915 0-2.21 1.692-2.804 3.168-3.076l.916-.168.694 2.692s-1.566.484-1.619.519c.007.014.015 1.11.012 1.166l1.528-1.55 1.676 2.184.209-.366V1.001H8v5H3v9h3.609a3.214 3.214 0 0 1-.193-1.104"/><path d="M11.754 15l-2.262-2.854c.069.242.104.506.104.794 0 .123-.011 1.01-.005 1.036l.002-.002c.03 0 1.6.485 1.6.485l-.138.541h.699z" opacity=".5"/><path d="M7.416 13.896c0-.157.021-.578.021-.757 0-.82-.31-1.155-1.168-1.155H6v-.969h.269c.858 0 1.168-.347 1.168-1.167 0-.179-.021-.598-.021-.757 0-1.071.466-1.744 2.349-2.09l.216.84c-1.241.347-1.406.673-1.406 1.44 0 .211.021.557.021.778 0 .82-.393 1.22-1.076 1.442.693.23 1.076.62 1.076 1.44 0 .22-.021.566-.021.777 0 .768.165 1.094 1.406 1.44L9.765 16c-1.883-.348-2.349-1.02-2.349-2.104"/><path d="M12.914 12.662l-1.894-2.467-.997 1.011 2.988 3.769 2.987-4.964L15.004 9z"/></g></svg>
